X: 1
T: Return To Miltown, The
M: 4/4
L: 1/8
R: reel
K: Dmaj
D2 FD ADFD | =CE E2  CEGE | D2 FD ADFD | =CDEG =cGE=C | 
D2 FD ADFD | =CE E2 CEGE | =F3 D E3 D |1 =CDEG =cGE=C :|2 =CDEG =cGEG ||
d3 e f2 ed | cdef g2 fe | dcde f2 ed | cAGE ED D2 | 
d3 e f2 ed | cdef g3 e | f2 fd efed | cAGE ED D2:|
